(BATH-TEST)
(T5  D=2 CR=0 - ZMIN=-10 - FLAT END MILL)
G90 G94 G91.1 G40 G49 G17
G21

(BIG HOLE)
M5
M9
T5 M6
(SPIRAL)
S15000 M3
G54
M8
G0 X55.527 Y22.926
G43 Z15 H1
Z5
G1 Z2 F180
Z0.7
X55.533 Y22.923 Z0.648
X55.552 Y22.917 Z0.6
X55.582 Y22.907 Z0.559
X55.622 Y22.894 Z0.527
X55.667 Y22.878 Z0.507
X55.716 Y22.862 Z0.5
X55.906 Y22.798
G3 X56.159 Y22.923 I0.064 J0.19
X43.841 Y27.077 Z-0.213 I-6.159 J2.077
X56.159 Y22.923 Z-0.926 I6.159 J-2.077
X56.5 Y25 Z-1 I-6.159 J2.077
X43.5 I-6.5 J0 F360
X56.5 I6.5 J0
X43.5 Z-1.713 I-6.5 J0 F180
X48.037 Y18.804 Z-2 I6.5 J0
X51.963 Y31.196 I1.963 J6.196 F360
X48.037 Y18.804 I-1.963 J-6.196
X51.963 Y31.196 Z-2.713 I1.963 J6.196 F180
X44.686 Y28.743 Z-3 I-1.963 J-6.196
X55.314 Y21.257 I5.314 J-3.743 F360
X44.686 Y28.743 I-5.314 J3.743
X55.314 Y21.257 Z-3.713 I5.314 J-3.743 F180
X55.173 Y28.936 Z-4 I-5.314 J3.743
X44.827 Y21.064 I-5.173 J-3.936 F360
X55.173 Y28.936 I5.173 J3.936
X44.827 Y21.064 Z-4.713 I-5.173 J-3.936 F180
X52.189 Y18.88 Z-5 I5.173 J3.936
X47.811 Y31.12 I-2.189 J6.12 F360
X52.189 Y18.88 I2.189 J-6.12
X47.811 Y31.12 Z-5.713 I-2.189 J6.12 F180
X43.504 Y24.761 Z-6 I2.189 J-6.12
X56.496 Y25.239 I6.496 J0.239 F360
X43.504 Y24.761 I-6.496 J-0.239
X56.496 Y25.239 Z-6.713 I6.496 J0.239 F180
X51.734 Y31.264 Z-7 I-6.496 J-0.239
X48.266 Y18.736 I-1.734 J-6.264 F360
X51.734 Y31.264 I1.734 J6.264
X48.266 Y18.736 Z-7.713 I-1.734 J-6.264 F180
X55.448 Y21.455 Z-8 I1.734 J6.264
X44.552 Y28.545 I-5.448 J3.545 F360
X55.448 Y21.455 I5.448 J-3.545
X44.552 Y28.545 Z-8.713 I-5.448 J3.545 F180
X44.975 Y20.877 Z-9 I5.448 J-3.545
X55.025 Y29.123 I5.025 J4.123 F360
X44.975 Y20.877 I-5.025 J-4.123
X46.1 Y19.8 Z-9.055 I5.025 J4.123 F180
X53.9 Y30.2 Z-9.768 I3.9 J5.2
X47.587 Y31.036 Z-10 I-3.9 J-5.2
X52.413 Y18.964 I2.413 J-6.036 F360
X47.587 Y31.036 I-2.413 J6.036
X47.476 Y30.776 I0.074 J-0.186 F720
G1 X47.55 Y30.59
X47.569 Y30.542 Z-9.993
X47.587 Y30.497 Z-9.973
X47.603 Y30.459 Z-9.941
X47.614 Y30.429 Z-9.9
X47.622 Y30.411 Z-9.852
X47.624 Y30.404 Z-9.8
G0 Z15

(SMALL POCKET)
M8
G0 X49.528 Y49.059
Z15
Z5
G1 Z0.7 F180
G3 X49.553 Y49.062 Z0.602 I-0.128 J0.941
X49.622 Y49.076 Z0.529 I-0.153 J0.938
X49.715 Y49.104 Z0.5 I-0.222 J0.924
X49.085 Y50.896 Z0.396 I-0.315 J0.896
X49.715 Y49.104 Z0.292 I0.315 J-0.896
X49.085 Y50.896 Z0.187 I-0.315 J0.896
X49.715 Y49.104 Z0.083 I0.315 J-0.896
X49.085 Y50.896 Z-0.021 I-0.315 J0.896
X49.715 Y49.104 Z-0.125 I0.315 J-0.896
X49.085 Y50.896 Z-0.23 I-0.315 J0.896
X49.715 Y49.104 Z-0.334 I0.315 J-0.896
X49.085 Y50.896 Z-0.438 I-0.315 J0.896
X49.715 Y49.104 Z-0.542 I0.315 J-0.896
X49.085 Y50.896 Z-0.646 I-0.315 J0.896
X49.715 Y49.104 Z-0.751 I0.315 J-0.896
X49.085 Y50.896 Z-0.855 I-0.315 J0.896
X49.715 Y49.104 Z-0.959 I0.315 J-0.896
X50.35 Y50 Z-1 I-0.315 J0.896
X49.65 I-0.35 J0 F360
X52.25 I1.3 J0
X47.75 I-2.25 J0
X52.25 I2.25 J0
X52.107 Y50.192 I-0.2 J0
G1 X49.679 Y50.908
G3 X49.121 Y49.092 Z-1.104 I-0.279 J-0.908 F180
X49.679 Y50.908 Z-1.208 I0.279 J0.908
X49.121 Y49.092 Z-1.313 I-0.279 J-0.908
X49.679 Y50.908 Z-1.417 I0.279 J0.908
X49.121 Y49.092 Z-1.521 I-0.279 J-0.908
X49.679 Y50.908 Z-1.625 I0.279 J0.908
X49.121 Y49.092 Z-1.73 I-0.279 J-0.908
X49.679 Y50.908 Z-1.834 I0.279 J0.908
X49.121 Y49.092 Z-1.938 I-0.279 J-0.908
X50.35 Y50 Z-2 I0.279 J0.908
X49.65 I-0.35 J0 F360
X52.25 I1.3 J0
X47.75 I-2.25 J0
X52.25 I2.25 J0
X52.107 Y50.192 I-0.2 J0
G1 X49.679 Y50.908
G3 X49.121 Y49.092 Z-2.104 I-0.279 J-0.908 F180
X49.679 Y50.908 Z-2.208 I0.279 J0.908
X49.121 Y49.092 Z-2.313 I-0.279 J-0.908
X49.679 Y50.908 Z-2.417 I0.279 J0.908
X49.121 Y49.092 Z-2.521 I-0.279 J-0.908
X49.679 Y50.908 Z-2.625 I0.279 J0.908
X49.121 Y49.092 Z-2.73 I-0.279 J-0.908
X49.679 Y50.908 Z-2.834 I0.279 J0.908
X49.121 Y49.092 Z-2.938 I-0.279 J-0.908
X50.35 Y50 Z-3 I0.279 J0.908
X49.65 I-0.35 J0 F360
X52.25 I1.3 J0
X47.75 I-2.25 J0
X52.25 I2.25 J0
X52.107 Y50.192 I-0.2 J0
G1 X49.679 Y50.908
G3 X49.121 Y49.092 Z-3.104 I-0.279 J-0.908 F180
X49.679 Y50.908 Z-3.208 I0.279 J0.908
X49.121 Y49.092 Z-3.313 I-0.279 J-0.908
X49.679 Y50.908 Z-3.417 I0.279 J0.908
X49.121 Y49.092 Z-3.521 I-0.279 J-0.908
X49.679 Y50.908 Z-3.625 I0.279 J0.908
X49.121 Y49.092 Z-3.73 I-0.279 J-0.908
X49.679 Y50.908 Z-3.834 I0.279 J0.908
X49.121 Y49.092 Z-3.938 I-0.279 J-0.908
X50.35 Y50 Z-4 I0.279 J0.908
X49.65 I-0.35 J0 F360
X52.25 I1.3 J0
X47.75 I-2.25 J0
X52.25 I2.25 J0
X52.107 Y50.192 I-0.2 J0
G1 X49.679 Y50.908
G3 X49.121 Y49.092 Z-4.104 I-0.279 J-0.908 F180
X49.679 Y50.908 Z-4.208 I0.279 J0.908
X49.121 Y49.092 Z-4.313 I-0.279 J-0.908
X49.679 Y50.908 Z-4.417 I0.279 J0.908
X49.121 Y49.092 Z-4.521 I-0.279 J-0.908
X49.679 Y50.908 Z-4.625 I0.279 J0.908
X49.121 Y49.092 Z-4.73 I-0.279 J-0.908
X49.679 Y50.908 Z-4.834 I0.279 J0.908
X49.121 Y49.092 Z-4.938 I-0.279 J-0.908
X50.35 Y50 Z-5 I0.279 J0.908
X49.65 I-0.35 J0 F360
X52.25 I1.3 J0
X47.75 I-2.25 J0
X52.25 I2.25 J0
X52.107 Y50.192 I-0.2 J0
G1 X49.679 Y50.908
G3 X49.121 Y49.092 Z-5.104 I-0.279 J-0.908 F180
X49.679 Y50.908 Z-5.208 I0.279 J0.908
X49.121 Y49.092 Z-5.313 I-0.279 J-0.908
X49.679 Y50.908 Z-5.417 I0.279 J0.908
X49.121 Y49.092 Z-5.521 I-0.279 J-0.908
X49.679 Y50.908 Z-5.625 I0.279 J0.908
X49.121 Y49.092 Z-5.73 I-0.279 J-0.908
X49.679 Y50.908 Z-5.834 I0.279 J0.908
X49.121 Y49.092 Z-5.938 I-0.279 J-0.908
X50.35 Y50 Z-6 I0.279 J0.908
X49.65 I-0.35 J0 F360
X52.25 I1.3 J0
X47.75 I-2.25 J0
X52.25 I2.25 J0
X52.107 Y50.192 I-0.2 J0
G1 X49.679 Y50.908
G3 X49.121 Y49.092 Z-6.104 I-0.279 J-0.908 F180
X49.679 Y50.908 Z-6.208 I0.279 J0.908
X49.121 Y49.092 Z-6.313 I-0.279 J-0.908
X49.679 Y50.908 Z-6.417 I0.279 J0.908
X49.121 Y49.092 Z-6.521 I-0.279 J-0.908
X49.679 Y50.908 Z-6.625 I0.279 J0.908
X49.121 Y49.092 Z-6.73 I-0.279 J-0.908
X49.679 Y50.908 Z-6.834 I0.279 J0.908
X49.121 Y49.092 Z-6.938 I-0.279 J-0.908
X50.35 Y50 Z-7 I0.279 J0.908
X49.65 I-0.35 J0 F360
X52.25 I1.3 J0
X47.75 I-2.25 J0
X52.25 I2.25 J0
X52.107 Y50.192 I-0.2 J0
G1 X49.679 Y50.908
G3 X49.121 Y49.092 Z-7.104 I-0.279 J-0.908 F180
X49.679 Y50.908 Z-7.208 I0.279 J0.908
X49.121 Y49.092 Z-7.313 I-0.279 J-0.908
X49.679 Y50.908 Z-7.417 I0.279 J0.908
X49.121 Y49.092 Z-7.521 I-0.279 J-0.908
X49.679 Y50.908 Z-7.625 I0.279 J0.908
X49.121 Y49.092 Z-7.73 I-0.279 J-0.908
X49.679 Y50.908 Z-7.834 I0.279 J0.908
X49.121 Y49.092 Z-7.938 I-0.279 J-0.908
X50.35 Y50 Z-8 I0.279 J0.908
X49.65 I-0.35 J0 F360
X52.25 I1.3 J0
X47.75 I-2.25 J0
X52.25 I2.25 J0
X52.107 Y50.192 I-0.2 J0
G1 X49.679 Y50.908
G3 X49.121 Y49.092 Z-8.104 I-0.279 J-0.908 F180
X49.679 Y50.908 Z-8.208 I0.279 J0.908
X49.121 Y49.092 Z-8.313 I-0.279 J-0.908
X49.679 Y50.908 Z-8.417 I0.279 J0.908
X49.121 Y49.092 Z-8.521 I-0.279 J-0.908
X49.679 Y50.908 Z-8.625 I0.279 J0.908
X49.121 Y49.092 Z-8.73 I-0.279 J-0.908
X49.679 Y50.908 Z-8.834 I0.279 J0.908
X49.121 Y49.092 Z-8.938 I-0.279 J-0.908
X50.35 Y50 Z-9 I0.279 J0.908
X49.65 I-0.35 J0 F360
X52.25 I1.3 J0
X47.75 I-2.25 J0
X52.25 I2.25 J0
X52.107 Y50.192 I-0.2 J0
G1 X49.679 Y50.908
G3 X49.121 Y49.092 Z-9.104 I-0.279 J-0.908 F180
X49.679 Y50.908 Z-9.208 I0.279 J0.908
X49.121 Y49.092 Z-9.313 I-0.279 J-0.908
X49.679 Y50.908 Z-9.417 I0.279 J0.908
X49.121 Y49.092 Z-9.521 I-0.279 J-0.908
X49.679 Y50.908 Z-9.625 I0.279 J0.908
X49.121 Y49.092 Z-9.73 I-0.279 J-0.908
X49.679 Y50.908 Z-9.834 I0.279 J0.908
X49.121 Y49.092 Z-9.938 I-0.279 J-0.908
X50.35 Y50 Z-10 I0.279 J0.908
X49.65 I-0.35 J0 F360
X52.25 I1.3 J0
X47.75 I-2.25 J0
X52.25 I2.25 J0
X52.226 Y50.096 Z-9.973 I-0.2 J0 F720
X52.18 Y50.152 Z-9.9 I-0.176 J-0.096
X52.158 Y50.168 Z-9.8 I-0.13 J-0.152
G0 Z15

M9
M30
