(BATH-TEST)
(T37  D=3 CR=0 - ZMIN=-16.5 - FLAT END MILL)
G90 G94 G91.1 G40 G49 G17
G21

(BIG HOLE BOTTOM)
M5
M9
T37 M6
(SPIRAL)
S10000 M3
G54
M8
G0 X-1.806 Y-21.418
G43 Z15 H1
Z5
G1 Z1 F180
Z0.8
X-1.81 Y-21.412 Z0.733
X-1.821 Y-21.393 Z0.67
X-1.84 Y-21.362 Z0.613
X-1.864 Y-21.322 Z0.565
X-1.894 Y-21.273 Z0.53
X-1.926 Y-21.219 Z0.508
X-1.961 Y-21.161 Z0.5
X-2.116 Y-20.904 F150
G3 X-2.527 Y-20.802 I-0.257 J-0.155
X2.527 Y-29.198 Z-0.847 I2.527 J-4.198 F180
X-2.527 Y-20.802 Z-2.194 I-2.527 J4.198
X2.527 Y-29.198 Z-3.54 I2.527 J-4.198
X-2.527 Y-20.802 Z-4.887 I-2.527 J4.198
X2.527 Y-29.198 Z-6.234 I2.527 J-4.198
X-2.527 Y-20.802 Z-7.581 I-2.527 J4.198
X2.527 Y-29.198 Z-8.927 I2.527 J-4.198
X-2.527 Y-20.802 Z-10.274 I-2.527 J4.198
X2.527 Y-29.198 Z-11.621 I2.527 J-4.198
X-2.527 Y-20.802 Z-12.968 I-2.527 J4.198
X2.527 Y-29.198 Z-14.315 I2.527 J-4.198
X-2.527 Y-20.802 Z-15.661 I-2.527 J4.198
X-2.94 Y-28.92 Z-16.5 I2.527 J-4.198
X2.94 Y-21.08 I2.94 J3.92 F300
X-2.94 Y-28.92 I-2.94 J-3.92
X-2.52 Y-28.86 I0.18 J0.24 F600
G1 X-2.34 Y-28.62
X-2.3 Y-28.567 Z-16.492
X-2.262 Y-28.516 Z-16.47
X-2.228 Y-28.47 Z-16.435
X-2.199 Y-28.432 Z-16.387
X-2.178 Y-28.404 Z-16.33
X-2.165 Y-28.386 Z-16.267
X-2.16 Y-28.38 Z-16.2
G0 Z15

(BIG HOLE TOP)
M8
G0 X2.739 Y-20.394
Z15
Z5
G1 Z1 F180
Z0.8
X2.742 Y-20.388 Z0.733
X2.752 Y-20.368 Z0.67
X2.769 Y-20.336 Z0.613
X2.791 Y-20.294 Z0.565
X2.817 Y-20.244 Z0.53
X2.846 Y-20.187 Z0.508
X2.877 Y-20.128 Z0.5
X3.016 Y-19.862 F150
G3 X2.888 Y-19.457 I-0.266 J0.139
X-2.888 Y-30.543 Z-1.218 I-2.888 J-5.543 F180
X2.888 Y-19.457 Z-2.936 I2.888 J5.543
X-2.888 Y-30.543 Z-4.654 I-2.888 J-5.543
X2.888 Y-19.457 Z-6.371 I2.888 J5.543
X-3.75 Y-30 Z-8 I-2.888 J-5.543
X3.75 Y-20 I3.75 J5 F300
X-3.75 Y-30 I-3.75 J-5
X-3.33 Y-29.94 I0.18 J0.24 F600
G1 X-3.15 Y-29.7
X-3.11 Y-29.647 Z-7.992
X-3.072 Y-29.596 Z-7.97
X-3.038 Y-29.55 Z-7.935
X-3.009 Y-29.512 Z-7.887
X-2.988 Y-29.484 Z-7.83
X-2.975 Y-29.466 Z-7.767
X-2.97 Y-29.46 Z-7.7
G0 Z15

M9
M30
