(BATH-TEST)
(T37  D=3 CR=0 - ZMIN=-16 - FLAT END MILL)
G90 G94 G91.1 G40 G49 G17
G21

(SMALL POCKET)
M5
M9
T37 M6
(SPIRAL)
S10000 M3
G54
M8
G0 X-0.916 Y0.716
G43 Z15 H1
Z5
G1 Z0.799 F150
G3 X-0.934 Y0.685 Z0.656 I1.232 J-0.716 F180
X-0.979 Y0.596 Z0.548 I1.25 J-0.685
X-1.031 Y0.467 Z0.5 I1.294 J-0.596
X1.662 Y-0.467 Z0.108 I1.346 J-0.467
X-1.031 Y0.467 Z-0.283 I-1.346 J0.467
X1.662 Y-0.467 Z-0.675 I1.346 J-0.467
X-1.031 Y0.467 Z-1.067 I-1.346 J0.467
X1.662 Y-0.467 Z-1.458 I1.346 J-0.467
X1.741 Y0 Z-1.5 I-1.346 J0.467
X1.1 I-0.32 J0
X1.75 I0.325 J0 F300
X-1.75 I-1.75 J0
X1.75 I1.75 J0
X1.743 Y0.052 I-0.189 J0
G1 X1.542 Y0.726
G3 X-0.91 Y-0.726 Z-1.892 I-1.226 J-0.726 F180
X1.542 Y0.726 Z-2.283 I1.226 J0.726
X-0.91 Y-0.726 Z-2.675 I-1.226 J-0.726
X1.741 Y0 Z-3 I1.226 J0.726
X1.1 I-0.32 J0
X1.75 I0.325 J0 F300
X-1.75 I-1.75 J0
X1.75 I1.75 J0
X1.743 Y0.052 I-0.189 J0
G1 X1.542 Y0.726
G3 X-0.91 Y-0.726 Z-3.392 I-1.226 J-0.726 F180
X1.542 Y0.726 Z-3.783 I1.226 J0.726
X-0.91 Y-0.726 Z-4.175 I-1.226 J-0.726
X1.741 Y0 Z-4.5 I1.226 J0.726
X1.1 I-0.32 J0
X1.75 I0.325 J0 F300
X-1.75 I-1.75 J0
X1.75 I1.75 J0
X1.743 Y0.052 I-0.189 J0
G1 X1.542 Y0.726
G3 X-0.91 Y-0.726 Z-4.892 I-1.226 J-0.726 F180
X1.542 Y0.726 Z-5.283 I1.226 J0.726
X-0.91 Y-0.726 Z-5.675 I-1.226 J-0.726
X1.741 Y0 Z-6 I1.226 J0.726
X1.1 I-0.32 J0
X1.75 I0.325 J0 F300
X-1.75 I-1.75 J0
X1.75 I1.75 J0
X1.743 Y0.052 I-0.189 J0
G1 X1.542 Y0.726
G3 X-0.91 Y-0.726 Z-6.392 I-1.226 J-0.726 F180
X1.542 Y0.726 Z-6.783 I1.226 J0.726
X-0.91 Y-0.726 Z-7.175 I-1.226 J-0.726
X1.741 Y0 Z-7.5 I1.226 J0.726
X1.1 I-0.32 J0
X1.75 I0.325 J0 F300
X-1.75 I-1.75 J0
X1.75 I1.75 J0
X1.743 Y0.052 I-0.189 J0
G1 X1.542 Y0.726
G3 X-0.91 Y-0.726 Z-7.892 I-1.226 J-0.726 F180
X1.542 Y0.726 Z-8.283 I1.226 J0.726
X-0.91 Y-0.726 Z-8.675 I-1.226 J-0.726
X1.741 Y0 Z-9 I1.226 J0.726
X1.1 I-0.32 J0
X1.75 I0.325 J0 F300
X-1.75 I-1.75 J0
X1.75 I1.75 J0
X1.743 Y0.052 I-0.189 J0
G1 X1.542 Y0.726
G3 X-0.91 Y-0.726 Z-9.392 I-1.226 J-0.726 F180
X1.542 Y0.726 Z-9.783 I1.226 J0.726
X-0.91 Y-0.726 Z-10.175 I-1.226 J-0.726
X1.741 Y0 Z-10.5 I1.226 J0.726
X1.1 I-0.32 J0
X1.75 I0.325 J0 F300
X-1.75 I-1.75 J0
X1.75 I1.75 J0
X1.743 Y0.052 I-0.189 J0
G1 X1.542 Y0.726
G3 X-0.91 Y-0.726 Z-10.892 I-1.226 J-0.726 F180
X1.542 Y0.726 Z-11.283 I1.226 J0.726
X-0.91 Y-0.726 Z-11.675 I-1.226 J-0.726
X1.741 Y0 Z-12 I1.226 J0.726
X1.1 I-0.32 J0
X1.75 I0.325 J0 F300
X-1.75 I-1.75 J0
X1.75 I1.75 J0
X1.743 Y0.052 I-0.189 J0
G1 X1.542 Y0.726
G3 X-0.91 Y-0.726 Z-12.392 I-1.226 J-0.726 F180
X1.542 Y0.726 Z-12.783 I1.226 J0.726
X-0.91 Y-0.726 Z-13.175 I-1.226 J-0.726
X1.741 Y0 Z-13.5 I1.226 J0.726
X1.1 I-0.32 J0
X1.75 I0.325 J0 F300
X-1.75 I-1.75 J0
X1.75 I1.75 J0
X1.743 Y0.052 I-0.189 J0
G1 X1.542 Y0.726
G3 X-0.91 Y-0.726 Z-13.892 I-1.226 J-0.726 F180
X1.542 Y0.726 Z-14.283 I1.226 J0.726
X-0.91 Y-0.726 Z-14.675 I-1.226 J-0.726
X1.741 Y0 Z-15 I1.226 J0.726
X1.1 I-0.32 J0
X1.75 I0.325 J0 F300
X-1.75 I-1.75 J0
X1.75 I1.75 J0
X1.421 Y0.153 I-0.2 J0
G1 X-0.017 Y-1.055
G3 X0.079 Y-1.405 I0.129 J-0.153
X0.553 Y1.405 Z-15.392 I0.237 J1.405 F180
X0.079 Y-1.405 Z-15.783 I-0.237 J-1.405
X1.741 Y0 Z-16 I0.237 J1.405
X1.1 I-0.32 J0
X1.75 I0.325 J0 F300
X-1.75 I-1.75 J0
X1.75 I1.75 J0
X1.728 Y0.112 Z-15.977 I-0.3 J0 F600
X1.678 Y0.195 Z-15.912 I-0.278 J-0.112
X1.631 Y0.239 Z-15.815 I-0.228 J-0.195
X1.612 Y0.252 Z-15.7 I-0.181 J-0.239
G0 Z15

M9
M30
