(BATH-TEST)
(T37  D=3 CR=0 - ZMIN=-16.5 - FLAT END MILL)
G90 G94 G91.1 G40 G49 G17
G21

(BIG HOLE BOTTOM)
M5
M9
T37 M6
(SPIRAL)
S10000 M3
G54
M8
G0 X0.24 Y-20.996
G43 Z15 H1
Z5
G1 Z2 F180
Z0.8
Y-20.988 Z0.733
X0.239 Y-20.966 Z0.67
Y-20.93 Z0.613
X0.238 Y-20.883 Z0.565
X0.237 Y-20.826 Z0.53
X0.236 Y-20.763 Z0.508
X0.235 Y-20.696 Z0.5
X0.231 Y-20.396 F150
G3 X-0.074 Y-20.101 I-0.3 J-0.005
X0.074 Y-29.899 Z-0.038 I0.074 J-4.899 F180
X-0.074 Y-20.101 Z-0.575 I-0.074 J4.899
X-2.94 Y-28.92 Z-1 I0.074 J-4.899
X2.94 Y-21.08 I2.94 J3.92 F300
X-2.94 Y-28.92 I-2.94 J-3.92
X2.94 Y-21.08 Z-1.538 I2.94 J3.92 F180
X-4.327 Y-27.298 Z-2 I-2.94 J-3.92
X4.327 Y-22.702 I4.327 J2.298 F300
X-4.327 Y-27.298 I-4.327 J-2.298
X4.327 Y-22.702 Z-2.538 I4.327 J2.298 F180
X-4.894 Y-25.241 Z-3 I-4.327 J-2.298
X4.894 Y-24.759 I4.894 J0.241 F300
X-4.894 Y-25.241 I-4.894 J-0.241
X4.894 Y-24.759 Z-3.538 I4.894 J0.241 F180
X-4.532 Y-23.138 Z-4 I-4.894 J-0.241
X4.532 Y-26.862 I4.532 J-1.862 F300
X-4.532 Y-23.138 I-4.532 J1.862
X4.532 Y-26.862 Z-4.538 I4.532 J-1.862 F180
X-3.311 Y-21.388 Z-5 I-4.532 J1.862
X3.311 Y-28.612 I3.311 J-3.612 F300
X-3.311 Y-21.388 I-3.311 J3.612
X3.311 Y-28.612 Z-5.538 I3.311 J-3.612 F180
X-1.461 Y-20.323 Z-6 I-3.311 J3.612
X1.461 Y-29.677 I1.461 J-4.677 F300
X-1.461 Y-20.323 I-1.461 J4.677
X1.461 Y-29.677 Z-6.538 I1.461 J-4.677 F180
X0.665 Y-20.145 Z-7 I-1.461 J4.677
X-0.665 Y-29.855 I-0.665 J-4.855 F300
X0.665 Y-20.145 I0.665 J4.855
X-0.665 Y-29.855 Z-7.538 I-0.665 J-4.855 F180
X2.666 Y-20.889 Z-8 I0.665 J4.855
X-2.666 Y-29.111 I-2.666 J-4.111 F300
X2.666 Y-20.889 I2.666 J4.111
X-2.666 Y-29.111 Z-8.538 I-2.666 J-4.111 F180
X4.161 Y-22.412 Z-9 I2.666 J4.111
X-4.161 Y-27.588 I-4.161 J-2.588 F300
X4.161 Y-22.412 I4.161 J2.588
X-4.161 Y-27.588 Z-9.538 I-4.161 J-2.588 F180
X4.866 Y-24.426 Z-10 I4.161 J2.588
X-4.866 Y-25.574 I-4.866 J-0.574 F300
X4.866 Y-24.426 I4.866 J0.574
X-4.866 Y-25.574 Z-10.538 I-4.866 J-0.574 F180
X4.649 Y-26.549 Z-11 I4.866 J0.574
X-4.649 Y-23.451 I-4.649 J1.549 F300
X4.649 Y-26.549 I4.649 J-1.549
X-4.649 Y-23.451 Z-11.538 I-4.649 J1.549 F180
X3.549 Y-28.378 Z-12 I4.649 J-1.549
X-3.549 Y-21.622 I-3.549 J3.378 F300
X3.549 Y-28.378 I3.549 J-3.378
X-3.549 Y-21.622 Z-12.538 I-3.549 J3.378 F180
X1.777 Y-29.567 Z-13 I3.549 J-3.378
X-1.777 Y-20.433 I-1.777 J4.567 F300
X1.777 Y-29.567 I1.777 J-4.567
X-1.777 Y-20.433 Z-13.538 I-1.777 J4.567 F180
X-0.333 Y-29.889 Z-14 I1.777 J-4.567
X0.333 Y-20.111 I0.333 J4.889 F300
X-0.333 Y-29.889 I-0.333 J-4.889
X0.333 Y-20.111 Z-14.538 I0.333 J4.889 F180
X-2.379 Y-29.284 Z-15 I-0.333 J-4.889
X2.379 Y-20.716 I2.379 J4.284 F300
X-2.379 Y-29.284 I-2.379 J-4.284
X2.379 Y-20.716 Z-15.538 I2.379 J4.284 F180
X-3.975 Y-27.866 Z-16 I-2.379 J-4.284
X3.975 Y-22.134 I3.975 J2.866 F300
X-3.975 Y-27.866 I-3.975 J-2.866
X4.503 Y-23.069 Z-16.5 I3.975 J2.866 F180
X-4.503 Y-26.931 I-4.503 J-1.931 F300
X4.503 Y-23.069 I4.503 J1.931
X4.109 Y-22.911 I-0.276 J-0.118 F600
G1 X3.834 Y-23.029
X3.772 Y-23.056 Z-16.492
X3.714 Y-23.081 Z-16.47
X3.662 Y-23.103 Z-16.435
X3.618 Y-23.122 Z-16.387
X3.585 Y-23.136 Z-16.33
X3.565 Y-23.145 Z-16.267
X3.558 Y-23.148 Z-16.2
G0 Z15

(BIG HOLE TOP)
M8
G0 X3.035 Y-29.109
Z15
Z5
G1 Z2 F180
Z0.8
X3.04 Y-29.115 Z0.733
X3.054 Y-29.132 Z0.67
X3.077 Y-29.16 Z0.613
X3.108 Y-29.196 Z0.565
X3.144 Y-29.24 Z0.53
X3.185 Y-29.289 Z0.508
X3.227 Y-29.34 Z0.5
X3.419 Y-29.57 F150
G3 X3.842 Y-29.609 I0.23 J0.192
X-3.842 Y-20.391 Z-0.158 I-3.842 J4.609 F180
X3.842 Y-29.609 Z-0.816 I3.842 J-4.609
X6 Y-25 Z-1 I-3.842 J4.609
X-6 I-6 J0 F300
X6 I6 J0
X-6 Z-1.658 I-6 J0 F180
X0.362 Y-30.989 Z-2 I6 J0
X-0.362 Y-19.011 I-0.362 J5.989 F300
X0.362 Y-30.989 I0.362 J-5.989
X-0.362 Y-19.011 Z-2.658 I-0.362 J5.989 F180
X-5.956 Y-25.722 Z-3 I0.362 J-5.989
X5.956 Y-24.278 I5.956 J0.722 F300
X-5.956 Y-25.722 I-5.956 J-0.722
X5.956 Y-24.278 Z-3.658 I5.956 J0.722 F180
X-1.08 Y-19.098 Z-4 I-5.956 J-0.722
X1.08 Y-30.902 I1.08 J-5.902 F300
X-1.08 Y-19.098 I-1.08 J5.902
X1.08 Y-30.902 Z-4.658 I1.08 J-5.902 F180
X5.826 Y-23.566 Z-5 I-1.08 J5.902
X-5.826 Y-26.434 I-5.826 J-1.434 F300
X5.826 Y-23.566 I5.826 J1.434
X-5.826 Y-26.434 Z-5.658 I-5.826 J-1.434 F180
X1.782 Y-30.729 Z-6 I5.826 J1.434
X-1.782 Y-19.271 I-1.782 J5.729 F300
X1.782 Y-30.729 I1.782 J-5.729
X-1.782 Y-19.271 Z-6.658 I-1.782 J5.729 F180
X-5.611 Y-27.124 Z-7 I1.782 J-5.729
X5.611 Y-22.876 I5.611 J2.124 F300
X-5.611 Y-27.124 I-5.611 J-2.124
X5.611 Y-22.876 Z-7.658 I5.611 J2.124 F180
X-2.459 Y-19.527 Z-8 I-5.611 J-2.124
X2.459 Y-30.473 I2.459 J-5.473 F300
X-2.459 Y-19.527 I-2.459 J5.473
X-2.61 Y-19.924 I0.123 J-0.274 F600
G1 X-2.487 Y-20.197
X-2.459 Y-20.258 Z-7.992
X-2.433 Y-20.316 Z-7.97
X-2.41 Y-20.368 Z-7.935
X-2.39 Y-20.411 Z-7.887
X-2.376 Y-20.444 Z-7.83
X-2.367 Y-20.464 Z-7.767
X-2.364 Y-20.471 Z-7.7
G0 Z15

M9
M30
