(BATH-TEST)
(T37  D=3 CR=0 - ZMIN=-16.5 - FLAT END MILL)
G90 G94 G91.1 G40 G49 G17
G21

(BIG HOLE BOTTOM)
M5
M9
T37 M6
(SPIRAL)
S10000 M3
G54
M8
G0 X-0.27 Y-29.002
G43 Z15 H1
Z5
G1 Z1 F180
Z0.8
Y-29.01 Z0.733
Y-29.032 Z0.67
Y-29.068 Z0.613
X-0.269 Y-29.115 Z0.565
Y-29.172 Z0.53
Y-29.235 Z0.508
X-0.268 Y-29.302 Z0.5
X-0.266 Y-29.602 F150
G3 X0.036 Y-29.9 I0.3 J0.002
X-0.036 Y-20.1 Z-0.576 I-0.036 J4.9 F180
X0.036 Y-29.9 Z-1.653 I0.036 J-4.9
X-0.036 Y-20.1 Z-2.729 I-0.036 J4.9
X0.036 Y-29.9 Z-3.806 I0.036 J-4.9
X-0.036 Y-20.1 Z-4.882 I-0.036 J4.9
X0.036 Y-29.9 Z-5.959 I0.036 J-4.9
X-0.036 Y-20.1 Z-7.035 I-0.036 J4.9
X0.036 Y-29.9 Z-8.112 I0.036 J-4.9
X-0.036 Y-20.1 Z-9.188 I-0.036 J4.9
X0.036 Y-29.9 Z-10.264 I0.036 J-4.9
X-0.036 Y-20.1 Z-11.341 I-0.036 J4.9
X0.036 Y-29.9 Z-12.417 I0.036 J-4.9
X-0.036 Y-20.1 Z-13.494 I-0.036 J4.9
X0.036 Y-29.9 Z-14.57 I0.036 J-4.9
X-0.036 Y-20.1 Z-15.647 I-0.036 J4.9
X-2.94 Y-28.92 Z-16.5 I0.036 J-4.9
X2.94 Y-21.08 I2.94 J3.92 F300
X-2.94 Y-28.92 I-2.94 J-3.92
X-2.52 Y-28.86 I0.18 J0.24 F600
G1 X-2.34 Y-28.62
X-2.3 Y-28.567 Z-16.492
X-2.262 Y-28.516 Z-16.47
X-2.228 Y-28.47 Z-16.435
X-2.199 Y-28.432 Z-16.387
X-2.178 Y-28.404 Z-16.33
X-2.165 Y-28.386 Z-16.267
X-2.16 Y-28.38 Z-16.2
G0 Z15

(BIG HOLE TOP)
M8
G0 X5.583 Y-24.467
Z15
Z5
G1 Z1 F180
Z0.8
X5.59 Y-24.466 Z0.733
X5.612 Y-24.463 Z0.67
X5.647 Y-24.457 Z0.613
X5.694 Y-24.45 Z0.565
X5.751 Y-24.442 Z0.53
X5.813 Y-24.433 Z0.508
X5.879 Y-24.423 Z0.5
X6.176 Y-24.378 F150
G3 X6.428 Y-24.037 I-0.044 J0.297
X-6.428 Y-25.963 Z-0.928 I-6.428 J-0.963 F180
X6.428 Y-24.037 Z-2.356 I6.428 J0.963
X-6.428 Y-25.963 Z-3.784 I-6.428 J-0.963
X6.428 Y-24.037 Z-5.212 I6.428 J0.963
X-6.428 Y-25.963 Z-6.64 I-6.428 J-0.963
X6.5 Y-25 Z-8 I6.428 J0.963
X-6.5 I-6.5 J0 F300
X6.5 I6.5 J0
X6.2 Y-24.7 I-0.3 J0 F600
G1 X5.9
X5.833 Z-7.992
X5.77 Z-7.97
X5.713 Z-7.935
X5.665 Z-7.887
X5.63 Z-7.83
X5.608 Z-7.767
X5.6 Z-7.7
G0 Z15

M9
M30
